public/assets/google.svg

<svg width="30" height="30" viewBox="0 0 30 30" fill="none" xmlns="http://www.w3.org/2000/svg">
<g clip-path="url(#clip0)">
<path d="M29.7187 12.6332C29.6416 12.2288 29.288 11.9362 28.8763 11.9362H15.3415C14.8679 11.9362 14.484 12.3201 14.484 12.7937V17.9385C14.484 18.412 14.8679 18.796 15.3415 18.796H22.2544C21.7332 19.8446 20.9853 20.7521 20.0876 21.463C20.012 21.5024 19.941 21.5537 19.8776 21.6171C19.871 21.6237 19.8654 21.6308 19.8591 21.6376C18.5658 22.5874 16.9899 23.1405 15.3415 23.1405C11.0395 23.1405 7.56708 19.6359 7.56708 15.3661C7.56708 11.0946 11.0414 7.59169 15.3415 7.59169C16.9743 7.59169 18.5742 8.14579 19.9686 9.19413C20.3098 9.45074 20.7882 9.41713 21.0902 9.11507L24.7492 5.45602C25.1048 5.1004 25.0792 4.51572 24.6938 4.19257C22.0317 1.96097 18.7104 0.731934 15.3415 0.731934C11.4537 0.731934 7.78465 2.26 5.01005 5.0346C2.23533 7.80926 0.707321 11.4784 0.707321 15.3661C0.707321 19.2538 2.23533 22.9229 5.01005 25.6976C7.78465 28.4722 11.4537 30.0002 15.3415 30.0002C19.2292 30.0002 22.8983 28.4722 25.6729 25.6976C28.4476 22.9229 29.9756 19.2538 29.9756 15.3661C29.9756 14.4478 29.8891 13.5284 29.7187 12.6332ZM15.3415 2.44687C18.0043 2.44687 20.6377 3.32241 22.8513 4.92862L20.3849 7.3951C18.8398 6.39946 17.1105 5.87675 15.3415 5.87675C12.8258 5.87675 10.4481 6.86907 8.64629 8.6709C7.96894 9.3483 7.40604 10.1071 6.96719 10.924L4.45681 8.4136C6.75511 4.82795 10.7754 2.44687 15.3415 2.44687ZM3.59934 9.9814L6.25526 12.6373C5.98979 13.5128 5.85214 14.4298 5.85214 15.3661C5.85214 16.3023 5.98979 17.2194 6.25526 18.0948L3.59934 20.7508C2.84425 19.1107 2.42226 17.2868 2.42226 15.3661C2.42226 13.4453 2.84425 11.6215 3.59934 9.9814ZM4.45681 22.3186L6.96719 19.8082C7.40604 20.6251 7.96894 21.3839 8.64629 22.0613C10.4481 23.8631 12.8258 24.8554 15.3415 24.8554C17.1511 24.8554 18.8871 24.3387 20.4035 23.3556L22.8911 25.8433C20.766 27.3788 18.1577 28.2853 15.3415 28.2853C10.7754 28.2853 6.75511 25.9042 4.45681 22.3186ZM24.2175 24.7445L21.7623 22.2891C22.9507 21.1683 23.8515 19.7456 24.3398 18.1962C24.4219 17.9357 24.375 17.6516 24.2135 17.4314C24.0519 17.2111 23.7951 17.081 23.522 17.081H16.1989V13.6511H28.1468C28.2224 14.2178 28.2607 14.792 28.2607 15.366C28.2607 19.0554 26.7059 22.3882 24.2175 24.7445Z" fill="#F87E0F"/>
</g>
<defs>
<clipPath id="clip0">
<rect width="29.2683" height="29.2683" fill="white" transform="translate(0.707321 0.731934)"/>
</clipPath>
</defs>
</svg>

<svg width="30" height="30" fill="none" xmlns="http://www.w3.org/2000/svg"><g clip-path="url(#clip0)"><path d="M29.719 12.633a.858.858 0 00-.843-.697H15.341a.857.857 0 00-.857.858v5.145c0 .473.384.857.857.857h6.913a7.886 7.886 0 01-2.166 2.667.856.856 0 00-.21.154l-.019.02a7.646 7.646 0 01-4.518 1.503c-4.301 0-7.774-3.504-7.774-7.774 0-4.271 3.474-7.774 7.774-7.774 1.633 0 3.233.554 4.628 1.602a.857.857 0 001.121-.079l3.66-3.659a.858.858 0 00-.056-1.263C22.032 1.96 18.71.732 15.342.732 11.454.732 7.784 2.26 5.01 5.035 2.235 7.809.707 11.478.707 15.366s1.528 7.557 4.303 10.332C7.785 28.472 11.454 30 15.342 30c3.887 0 7.556-1.528 10.33-4.302 2.776-2.775 4.304-6.444 4.304-10.332 0-.918-.087-1.838-.257-2.733zM15.34 2.447c2.663 0 5.297.875 7.51 2.482l-2.466 2.466C18.84 6.4 17.11 5.877 15.34 5.877c-2.515 0-4.893.992-6.695 2.794a9.636 9.636 0 00-1.679 2.253l-2.51-2.51c2.298-3.586 6.318-5.967 10.884-5.967zM3.6 9.98l2.656 2.656a9.392 9.392 0 00-.403 2.73c0 .935.138 1.852.403 2.728L3.6 20.75a12.843 12.843 0 01-1.177-5.385c0-1.92.422-3.745 1.177-5.385zm.858 12.338l2.51-2.51a9.636 9.636 0 001.68 2.252c1.801 1.802 4.179 2.794 6.694 2.794 1.81 0 3.546-.516 5.063-1.5l2.487 2.488a12.85 12.85 0 01-7.55 2.442c-4.566 0-8.586-2.38-10.884-5.966zm19.76 2.425l-2.455-2.455a9.655 9.655 0 002.578-4.093.857.857 0 00-.818-1.115h-7.323v-3.43h11.948a12.884 12.884 0 01-3.93 11.093z" fill="#F87E0F"/></g><defs><clipPath id="clip0"><path fill="#fff" transform="translate(.707 .732)" d="M0 0h29.268v29.268H0z"/></clipPath></defs></svg>
